X:1
T:Title
%%score { ( 1 3 4 ) | ( 2 5 ) }
L:1/8
M:3/4
K:Eb
V:1 treble nm="Grand Piano"
V:3 treble 
V:4 treble 
V:2 bass 
V:5 bass 
V:1
 z2 z[Q:1/4=82] G EF | A3 G [DG][DF] | E3 E FG | A3 A [GB][_Gc] |[M:3/8] [GB]3 | [EB][Ee][Ac] | %6
[M:3/4] [GB]3 [Ac] [GB][FA] | G4 G2 | F3 F [FB][Fd] |[M:5/8] [Ec]>[DB] [DB]3 |[M:1/4] [DB]2 | %11
[M:3/4] z z/ A,/ z c d[Dc] | [Ec]>[EB] [EB]2 [EB]2 | [DA]3 [DA] [DB][DA] |[M:2/4] [DA]>[EG] [EG]2 | %15
[M:1/4] [EG]2 |[M:3/4] [EG]3 [EG] [=Ec][CEB] | [CGB]>[CFA] [CFA]2 C-[CF] | %18
 E>E E2 DF[Q:1/4=81][Q:1/4=80][Q:1/4=78][Q:1/4=77][Q:1/4=76][Q:1/4=75][Q:1/4=74][Q:1/4=72][Q:1/4=71][Q:1/4=70][Q:1/4=69] | %19
[M:7/16] [DF]>EE3/2[Q:1/4=68][Q:1/4=66][Q:1/4=65][Q:1/4=64][Q:1/4=63] |] %20
V:2
 z2 z [E,B,E] [E,G,][E,A,E] | [E,CE]3 [E,B,E] [B,,B,][B,,A,] | [E,G,]3 [E,G,] [E,A,E][E,B,E] | %3
 [E,CE]3 [E,CE] [E,B,][E,=A,] |[M:3/8] [E,B,]3 | [E,G,][E,C][E,D] | %6
[M:3/4] [E,E]3 [E,E] [D,B,][D,B,] | [E,B,E]4 [=E,B,_D]2 | [F,B,D]3 [E,=A,C] [D,B,][B,,B,] | %9
[M:5/8] [F,=A,]>[B,,B,] [B,,B,]3 |[M:1/4] [B,,B,]2 |[M:3/4] [B,,A,]>B,, z D D[B,,A,] | %12
 [B,,G,]>[B,,G,] [B,,G,]2 [B,,G,]2 | [B,,F,]3 [B,,F,] [B,,G,][B,,F,] | %14
[M:2/4] [=B,,F,]>[C,E,] [C,E,]2 |[M:1/4] [C,G,]2 |[M:3/4] [C,C]3 [C,C] [C,G,]C, | F,>F, F,2 z A, | %18
 [B,,G,B,]>[B,,G,B,] [B,,G,B,]2 [F,B,][A,D] |[M:7/16] [B,,A,]>[E,G,B,][E,G,B,]3/2 |] %20
V:3
 x6 | x6 | x6 | x6 |[M:3/8] x3 | x3 |[M:3/4] x6 | x6 | x6 |[M:5/8] x5 |[M:1/4] x2 | %11
[M:3/4] [Dc]4 z2 | x6 | x6 |[M:2/4] x4 |[M:1/4] x2 |[M:3/4] x6 | z2 z2 .[B,G]2 | x6 | %19
[M:7/16] x7/2 |] %20
V:4
 x6 | x6 | x6 | x6 |[M:3/8] x3 | x3 |[M:3/4] x6 | x6 | x6 |[M:5/8] x5 |[M:1/4] x2 |[M:3/4] z2 A,4 | %12
 x6 | x6 |[M:2/4] x4 |[M:1/4] x2 |[M:3/4] x6 | x6 | x6 |[M:7/16] x7/2 |] %20
V:5
 x6 | x6 | x6 | x6 |[M:3/8] x3 | x3 |[M:3/4] x6 | x6 | x6 |[M:5/8] x5 |[M:1/4] x2 | %11
[M:3/4] z2 B,,4 | x6 | x6 |[M:2/4] x4 |[M:1/4] x2 |[M:3/4] x6 | z2 z2 A,,2 | z2 z2 B,,2 | %19
[M:7/16] x7/2 |] %20

